X: 21121
M: 6/8
L: 1/8
K: D
V: 1 name="1"
a |\
(gf).a (fe).a | (ed).d d2A | Bcd efg | (f3 e2)a |\
(fe).a (fe).b | (ag).g g2f | efg ABc | d[fdA][fdA] [f2d2A2] H|]
z |\
[A3F3] [AF][AF][AF] | [A3G3] [AG][AG][AG] | [A3F3] [AF][AF][AF] | [A3G3] [AG][AG][AG] |\
c'ae d'be | c'ae d'be | c'ae d'be | c'ae d'be |\
(c'a).a (ae).e | (ec).c (cA).A | (AF).F (FE).E | ^d2z z2z | =D2z z2z |
(aA).A (AB).B | (Bc).c (cd).d | (de).e (ef).f | H[g3A3] H[g3A3] "^D.C."y |]
P: MINOR.
[K:=f=c][K:Dm]
z |:\
a3 f3 | d3 A3 | (BA).A (AA).A | (BA).A (AA).A :|\
d3- def | e3- efg |  ^f3- fga | g3- ga_b |\
(b^c).c ccc | dAA {=c}BAG |
(f2c) (a2f) | ebg fed | c=Bd c_BG | F2A c2A :|\
f2c a2f | E2A ^c2A | (e2^c) (a2e) |
[a^c]aa aaa | aAA AAA | A_B=B =c^cd | _e=ef ^fg^g |:\
a3 f3 | d3 A3 |
(BA).A AAA | (BA).A AAA :|\
d3- def | e3- efg | ^f3- fga | g3- gab |\
b^cc ccc | dAA {=c}BAG | F3 "^D.C."E3 |]


